img/icons/breadcrumbs-item.svg

<svg width="73" height="21" viewBox="0 0 73 21" fill="none" xmlns="http://www.w3.org/2000/svg">
<path d="M7.36 5.984H2.688V16H1.36V4.8H7.36V5.984ZM6.0965 12C6.0965 10.6453 6.39517 9.61067 6.9925 8.896C7.6005 8.17067 8.46983 7.808 9.6005 7.808C10.1978 7.808 10.7152 7.90933 11.1525 8.112C11.6005 8.304 11.9685 8.58667 12.2565 8.96C12.5445 9.32267 12.7578 9.76533 12.8965 10.288C13.0352 10.8 13.1045 11.3707 13.1045 12C13.1045 13.3547 12.8005 14.3947 12.1925 15.12C11.5952 15.8347 10.7312 16.192 9.6005 16.192C9.00317 16.192 8.4805 16.096 8.0325 15.904C7.59517 15.7013 7.2325 15.4187 6.9445 15.056C6.6565 14.6827 6.44317 14.24 6.3045 13.728C6.16583 13.2053 6.0965 12.6293 6.0965 12ZM7.4245 12C7.4245 12.4053 7.46183 12.7947 7.5365 13.168C7.62183 13.5413 7.74983 13.8667 7.9205 14.144C8.09117 14.4213 8.31517 14.6453 8.5925 14.816C8.86983 14.9867 9.20583 15.072 9.6005 15.072C11.0512 15.0827 11.7765 14.0587 11.7765 12C11.7765 11.584 11.7338 11.1893 11.6485 10.816C11.5738 10.4427 11.4512 10.1173 11.2805 9.84C11.1098 9.56267 10.8858 9.344 10.6085 9.184C10.3312 9.01333 9.99517 8.928 9.6005 8.928C8.14983 8.91733 7.4245 9.94133 7.4245 12ZM20.5786 15.472C20.2586 15.7067 19.88 15.8827 19.4426 16C19.0053 16.128 18.5466 16.192 18.0666 16.192C17.448 16.192 16.9253 16.096 16.4986 15.904C16.072 15.7013 15.72 15.4187 15.4426 15.056C15.176 14.6827 14.9786 14.24 14.8506 13.728C14.7333 13.2053 14.6746 12.6293 14.6746 12C14.6746 10.6453 14.9733 9.61067 15.5706 8.896C16.168 8.17067 17.0266 7.808 18.1466 7.808C18.6586 7.808 19.0906 7.85067 19.4426 7.936C19.8053 8.01067 20.1306 8.12267 20.4186 8.272L20.0506 9.376C19.8053 9.23733 19.5333 9.13067 19.2346 9.056C18.936 8.97067 18.616 8.928 18.2746 8.928C16.76 8.928 16.0026 9.952 16.0026 12C16.0026 12.4053 16.04 12.7947 16.1146 13.168C16.2 13.5307 16.3333 13.856 16.5146 14.144C16.7066 14.4213 16.952 14.6453 17.2506 14.816C17.56 14.9867 17.9386 15.072 18.3866 15.072C18.7706 15.072 19.112 15.0133 19.4106 14.896C19.72 14.7787 19.9706 14.6453 20.1626 14.496L20.5786 15.472ZM27.1954 9.12H24.6834V16H23.4034V9.12H20.8914V8H27.1954V9.12ZM33.4584 11.264L33.5064 10.272H33.4584L32.8024 11.296L29.2024 16H28.4664V8H29.7464V12.88L29.6984 13.824H29.7624L30.3864 12.832L33.9864 8H34.7384V16H33.4584V11.264ZM42.0968 12.464H38.4808V16H37.2008V8H38.4808V11.344H42.0968V8H43.3768V16H42.0968V12.464ZM50.8334 11.264L50.8814 10.272H50.8334L50.1774 11.296L46.5774 16H45.8414V8H47.1214V12.88L47.0734 13.824H47.1374L47.7614 12.832L51.3614 8H52.1134V16H50.8334V11.264ZM61.7598 18.032H60.8958L60.6558 16H54.5758V8H55.8558V14.88H59.3278V8H60.6078V14.88H61.7598V18.032ZM64.6214 14.88C65.016 14.944 65.3947 14.976 65.7574 14.976C66.4294 14.976 66.8987 14.848 67.1654 14.592C67.432 14.3253 67.5654 13.952 67.5654 13.472C67.5654 13.0453 67.432 12.6933 67.1654 12.416C66.9094 12.1387 66.456 12 65.8054 12C65.624 12 65.4267 12.0053 65.2134 12.016C65 12.0267 64.8027 12.0587 64.6214 12.112V14.88ZM64.6214 11.056C64.8774 11.0133 65.1227 10.9867 65.3574 10.976C65.592 10.9547 65.816 10.944 66.0294 10.944C66.5734 10.944 67.0267 11.008 67.3894 11.136C67.7627 11.2533 68.0614 11.4187 68.2854 11.632C68.5094 11.8453 68.664 12.1013 68.7494 12.4C68.8454 12.688 68.8934 12.9973 68.8934 13.328C68.8934 14.2987 68.6214 15.0027 68.0774 15.44C67.544 15.8773 66.6747 16.096 65.4694 16.096C64.7867 16.096 64.0774 16.064 63.3414 16V8H64.6214V11.056ZM70.1574 8H71.4374V16H70.1574V8Z" fill="white"/>
</svg>

<svg xmlns="http://www.w3.org/2000/svg" width="73" height="21" fill="none"><path fill="#fff" d="M7.36 5.98H2.69V16H1.36V4.8h6v1.18ZM6.1 12c0-1.35.3-2.39.9-3.1a3.21 3.21 0 0 1 2.6-1.1c.6 0 1.12.1 1.55.31.45.2.82.48 1.1.85.3.36.5.8.65 1.33.14.51.2 1.08.2 1.71 0 1.35-.3 2.4-.9 3.12-.6.71-1.47 1.07-2.6 1.07-.6 0-1.12-.1-1.57-.29-.43-.2-.8-.48-1.09-.84-.28-.38-.5-.82-.64-1.33-.13-.52-.2-1.1-.2-1.73Zm1.32 0c0 .4.04.8.12 1.17.08.37.21.7.38.97.17.28.4.5.67.68.28.17.62.25 1.01.25 1.45.01 2.18-1.01 2.18-3.07 0-.42-.05-.81-.13-1.18-.08-.38-.2-.7-.37-.98a1.89 1.89 0 0 0-1.68-.91C8.15 8.92 7.42 9.94 7.42 12Zm13.16 3.47c-.32.24-.7.41-1.14.53a4.87 4.87 0 0 1-2.94-.1c-.43-.2-.78-.48-1.06-.84a3.88 3.88 0 0 1-.59-1.33 7.9 7.9 0 0 1-.18-1.73c0-1.35.3-2.39.9-3.1.6-.73 1.46-1.1 2.58-1.1a5.6 5.6 0 0 1 2.27.47l-.37 1.1a3.25 3.25 0 0 0-.82-.31c-.3-.09-.61-.13-.96-.13C16.76 8.93 16 9.95 16 12c0 .4.04.8.11 1.17.09.36.22.69.4.97.2.28.44.5.74.68.31.17.69.25 1.14.25a2.9 2.9 0 0 0 1.78-.58l.4.98Zm6.62-6.35h-2.52V16H23.4V9.12h-2.5V8h6.3v1.12Zm6.26 2.14.05-.99h-.05l-.66 1.03-3.6 4.7h-.73V8h1.28v4.88l-.05.94h.06l.63-.99L33.99 8h.75v8h-1.28v-4.74Zm8.64 1.2h-3.62V16H37.2V8h1.28v3.34h3.62V8h1.28v8H42.1v-3.54Zm8.73-1.2.05-.99h-.05l-.65 1.03-3.6 4.7h-.74V8h1.28v4.88l-.05.94h.07l.62-.99L51.36 8h.75v8h-1.28v-4.74Zm10.93 6.77h-.86L60.66 16h-6.08V8h1.28v6.88h3.47V8h1.28v6.88h1.15v3.15Zm2.86-3.15c.4.06.77.1 1.14.1.67 0 1.14-.13 1.4-.39.27-.26.4-.64.4-1.12 0-.42-.13-.78-.4-1.05-.25-.28-.7-.42-1.35-.42-.19 0-.38 0-.6.02-.21 0-.4.04-.59.1v2.76Zm0-3.82c.26-.05.5-.07.74-.08.23-.03.46-.04.67-.04.54 0 1 .07 1.36.2.37.11.67.28.9.5.22.2.37.46.46.76.1.29.14.6.14.93 0 .97-.27 1.67-.81 2.11-.54.44-1.4.66-2.61.66-.68 0-1.4-.04-2.13-.1V8h1.28v3.06ZM70.16 8h1.28v8h-1.28V8Z"/></svg>
